packages/tools/pie-icons/src/assets/payment/braintree-paypal.svg

<svg width="24" height="24" viewBox="0 0 24 24" fill="none" xmlns="http://www.w3.org/2000/svg">
<path d="M2.65011 12.2704H3.12019C3.48358 12.2704 3.66361 12.1504 3.66361 11.9237C3.66361 11.7003 3.47024 11.5769 3.09352 11.5769H2.65344V12.2704H2.65011ZM2.65011 10.5934V11.2369H3.06351C3.37356 11.2369 3.53025 11.1202 3.53025 10.9135C3.53025 10.7001 3.36356 10.5901 3.05684 10.5901C3.05351 10.5901 2.65011 10.5934 2.65011 10.5934ZM2 12.6204V12.2737H2.27338V10.6001H2V10.2534H3.10352C3.61027 10.2534 3.91699 10.4834 3.91699 10.8901C3.91699 11.1569 3.76363 11.3169 3.56359 11.3969C3.84364 11.4736 4.05034 11.6736 4.05034 11.947C4.05034 12.3804 3.71362 12.6204 3.16353 12.6204C3.16019 12.6204 2 12.6204 2 12.6204ZM6.04067 11.3836C5.99733 11.2435 5.89732 11.1635 5.76396 11.1635C5.44724 11.1635 5.14719 11.3936 5.14719 11.8236V12.2737H5.75729V12.6204H4.4004V12.2737H4.78713V11.2302H4.48375V10.8835H5.14719V11.1769C5.26054 10.9735 5.48391 10.8268 5.78396 10.8268C6.12069 10.8268 6.33072 11.0202 6.39407 11.2935L6.04067 11.3836ZM7.89098 11.9137C7.7743 11.8703 7.60093 11.8403 7.44424 11.8403C7.2142 11.8403 6.99417 11.9137 6.99417 12.1204C6.99417 12.2737 7.13419 12.3471 7.32422 12.3471C7.59093 12.3471 7.89098 12.2037 7.89098 11.957V11.9137ZM7.89098 11.6036V11.5069C7.89098 11.2602 7.69428 11.1602 7.47758 11.1602C7.27755 11.1602 7.10418 11.2402 6.96416 11.3669L6.72412 11.1069C6.89081 10.9568 7.12085 10.8168 7.47758 10.8168C7.91765 10.8168 8.25771 11.0468 8.25771 11.4902V12.267H8.51108V12.6138H7.88765V12.4337C7.7943 12.5838 7.53759 12.6771 7.28755 12.6771C6.92415 12.6771 6.6141 12.4904 6.6141 12.1304C6.61077 11.7003 7.03417 11.5336 7.4209 11.5336C7.6176 11.5336 7.77096 11.5703 7.89098 11.6036ZM9.63127 10H10.0347V10.5334H9.63127V10ZM10.7115 12.2704V12.6171H8.94449V12.2704H9.67795V11.2269H9.11785V10.8801H10.038V12.2737H10.7115V12.2704ZM11.1449 12.2704H11.4116V11.2269H11.1615V10.8801H11.7716V11.1035C11.8783 10.9335 12.0983 10.8235 12.3717 10.8235C12.7618 10.8235 13.0418 11.0702 13.0418 11.4636V12.2737H13.3086V12.6204H12.4017V12.2737H12.6784V11.5636C12.6784 11.2635 12.4917 11.1735 12.3251 11.1735C12.0517 11.1735 11.775 11.3769 11.775 11.6936V12.2737H12.0517V12.6204H11.1449V12.2704ZM13.802 11.2235H13.3486V10.8768H13.802V10.2467H14.1654V10.8768H15.0188V11.2235H14.1654V11.957C14.1654 12.227 14.3554 12.3404 14.5688 12.3404C14.7721 12.3404 14.9455 12.2237 15.0755 12.097L15.3189 12.3471C15.1555 12.5204 14.9155 12.6771 14.5721 12.6771C14.132 12.6771 13.8053 12.4337 13.8053 11.9703V11.2235M17.2925 11.3836C17.2492 11.2435 17.1492 11.1635 17.0158 11.1635C16.6991 11.1635 16.3991 11.3936 16.3991 11.8236V12.2737H17.0058V12.6204H15.6489V12.2737H16.0357V11.2302H15.7356V10.8835H16.3991V11.1769C16.5124 10.9735 16.7358 10.8268 17.0358 10.8268C17.3726 10.8268 17.5826 11.0202 17.6459 11.2935L17.2925 11.3836ZM18.266 11.5669H19.3429C19.2895 11.3169 19.0695 11.1502 18.8228 11.1502C18.5394 11.1502 18.3261 11.3236 18.266 11.5669ZM19.723 12.3537C19.5429 12.5438 19.2229 12.6771 18.8628 12.6771C18.276 12.6771 17.8626 12.2837 17.8626 11.7503C17.8626 11.2135 18.2594 10.8235 18.8161 10.8235C19.3662 10.8235 19.753 11.2435 19.753 11.8136V11.877H18.246C18.3094 12.167 18.5494 12.3437 18.8661 12.3437C19.1295 12.3437 19.3562 12.237 19.4796 12.1037C19.4796 12.107 19.723 12.3537 19.723 12.3537ZM20.5131 11.5669H21.5899C21.5366 11.3169 21.3166 11.1502 21.0698 11.1502C20.7865 11.1502 20.5764 11.3236 20.5131 11.5669ZM21.97 12.3537C21.79 12.5438 21.4699 12.6771 21.1099 12.6771C20.5231 12.6771 20.1097 12.2837 20.1097 11.7503C20.1097 11.2135 20.5064 10.8235 21.0632 10.8235C21.6133 10.8235 22 11.2435 22 11.8136V11.877H20.4931C20.5564 12.167 20.7965 12.3437 21.1132 12.3437C21.3766 12.3437 21.6033 12.237 21.7266 12.1037L21.97 12.3537Z" fill="black"/>
<path d="M11.8116 14.164L11.7183 14.3407H11.6016L12.0183 13.5606H12.1217L12.2917 14.3407H12.1784L12.1384 14.164H11.8116ZM12.0517 13.7073L11.8583 14.074H12.125L12.0517 13.7073ZM18.9295 14.2774C18.9728 14.2774 19.0028 14.2707 19.0295 14.254C19.0562 14.2374 19.0762 14.2207 19.0862 14.1974C19.0962 14.174 19.1062 14.1474 19.1062 14.124C19.1062 14.1007 19.0995 14.0807 19.0862 14.0673C19.0762 14.0507 19.0528 14.0373 19.0195 14.0207L18.9228 13.9773C18.8695 13.954 18.8261 13.9273 18.8028 13.8973C18.7795 13.8673 18.7695 13.8306 18.7695 13.7906C18.7695 13.744 18.7795 13.7073 18.8028 13.6706C18.8261 13.6373 18.8561 13.6073 18.8995 13.5906C18.9428 13.5706 18.9895 13.5639 19.0428 13.5639C19.0895 13.5639 19.1262 13.5706 19.1629 13.5839C19.1962 13.5939 19.2262 13.6139 19.2529 13.6373L19.2362 13.7406C19.1795 13.6873 19.1129 13.6606 19.0362 13.6606C18.9895 13.6606 18.9528 13.6706 18.9195 13.6939C18.8861 13.7173 18.8728 13.7473 18.8728 13.784C18.8728 13.804 18.8795 13.824 18.8961 13.834C18.9128 13.8506 18.9395 13.864 18.9762 13.884L19.0728 13.9273C19.1229 13.954 19.1629 13.9807 19.1795 14.0073C19.2029 14.0373 19.2095 14.074 19.2095 14.114C19.2095 14.1607 19.1995 14.2074 19.1795 14.244C19.1595 14.2807 19.1262 14.3174 19.0828 14.3407C19.0362 14.3674 18.9795 14.3807 18.9095 14.3807C18.8128 14.3807 18.7361 14.3574 18.6828 14.3074L18.7028 14.194C18.7728 14.2474 18.8461 14.2774 18.9295 14.2774ZM19.7696 13.8406C19.8096 13.884 19.823 13.934 19.823 13.9973C19.823 14.0207 19.823 14.0373 19.8196 14.0507C19.8163 14.0673 19.813 14.0807 19.8096 14.1007H19.3862C19.3829 14.1574 19.3962 14.2007 19.4296 14.2307C19.4596 14.2607 19.5029 14.2774 19.5563 14.2774C19.5963 14.2774 19.6296 14.274 19.6596 14.2607C19.6896 14.254 19.723 14.2374 19.753 14.2174L19.7363 14.3007C19.6796 14.3407 19.6096 14.3574 19.5329 14.3574C19.4829 14.3574 19.4362 14.3474 19.3996 14.3241C19.3596 14.3007 19.3329 14.2707 19.3162 14.2307C19.2996 14.1907 19.2862 14.1474 19.2862 14.1007C19.2862 14.054 19.2962 14.004 19.3196 13.9507C19.3429 13.9007 19.3829 13.854 19.4262 13.8206C19.4762 13.7873 19.5329 13.7673 19.6063 13.7673C19.6763 13.7806 19.7296 13.7973 19.7696 13.8406ZM19.4729 13.9107C19.4396 13.9407 19.4096 13.9807 19.3996 14.024H19.7263V14.0007C19.7263 13.9573 19.7163 13.9273 19.6929 13.9007C19.6696 13.8773 19.6396 13.8673 19.5963 13.8673C19.5496 13.864 19.5063 13.8806 19.4729 13.9107ZM20.1697 13.884C20.1264 13.884 20.0897 13.9007 20.0563 13.9307C20.0263 13.9607 20.0063 14.0073 19.993 14.0707L19.9497 14.3474H19.8496L19.933 13.7973H20.0297L20.013 13.8906C20.0597 13.824 20.113 13.794 20.1764 13.794C20.193 13.794 20.2064 13.794 20.2197 13.7973L20.203 13.8873H20.1697M20.4731 14.3474H20.3764L20.2464 13.8006H20.3464L20.4431 14.2274L20.6698 13.8006H20.7731L20.4731 14.3474ZM20.8365 14.3474H20.7365L20.8198 13.7973H20.9198L20.8365 14.3474ZM20.8498 13.6906C20.8398 13.6806 20.8331 13.6673 20.8331 13.6506C20.8331 13.6306 20.8398 13.6173 20.8565 13.6006C20.8731 13.5839 20.8865 13.5773 20.9065 13.5773C20.9232 13.5773 20.9332 13.5806 20.9465 13.5939C20.9565 13.6039 20.9632 13.6173 20.9632 13.6339C20.9632 13.6539 20.9565 13.6673 20.9398 13.6839C20.9232 13.7006 20.9098 13.7073 20.8898 13.7073C20.8731 13.7073 20.8598 13.7006 20.8498 13.6906ZM21.0732 14.3341C21.0332 14.3107 21.0065 14.2807 20.9898 14.2407C20.9732 14.2007 20.9598 14.1607 20.9598 14.114C20.9598 14.0573 20.9698 14.0007 20.9998 13.9473C21.0265 13.8973 21.0665 13.854 21.1165 13.824C21.1665 13.794 21.2299 13.7773 21.2932 13.7773C21.3599 13.7773 21.4132 13.794 21.4566 13.8273L21.4399 13.9307C21.3999 13.8873 21.3499 13.8673 21.2899 13.8673C21.2465 13.8673 21.2099 13.8773 21.1732 13.9007C21.1399 13.924 21.1099 13.9507 21.0932 13.9907C21.0732 14.024 21.0665 14.064 21.0665 14.1074C21.0665 14.1574 21.0832 14.2007 21.1099 14.2307C21.1365 14.2607 21.1799 14.2774 21.2265 14.2774C21.2565 14.2774 21.2899 14.274 21.3199 14.2607C21.3499 14.2507 21.3766 14.234 21.3999 14.2107L21.3832 14.3141C21.3532 14.3341 21.3266 14.3474 21.2932 14.3574C21.2632 14.3641 21.2299 14.3674 21.1999 14.3674C21.1499 14.3707 21.1065 14.3574 21.0732 14.3341ZM21.9467 13.8406C21.9867 13.884 22 13.934 22 13.9973C22 14.0207 22 14.0373 21.9967 14.0507C21.9933 14.0673 21.99 14.0807 21.9867 14.1007H21.5633C21.5599 14.1574 21.5733 14.2007 21.6066 14.2307C21.6366 14.2607 21.6799 14.2774 21.7333 14.2774C21.7733 14.2774 21.8066 14.274 21.8366 14.2607C21.8666 14.254 21.9 14.2374 21.93 14.2174L21.9133 14.3007C21.8566 14.3407 21.7866 14.3574 21.71 14.3574C21.6599 14.3574 21.6133 14.3474 21.5766 14.3241C21.5366 14.3007 21.5099 14.2707 21.4932 14.2307C21.4766 14.1907 21.4632 14.1474 21.4632 14.1007C21.4632 14.054 21.4732 14.004 21.4966 13.9507C21.5199 13.9007 21.5599 13.854 21.6033 13.8206C21.6533 13.7873 21.71 13.7673 21.7833 13.7673C21.86 13.7806 21.9133 13.7973 21.9467 13.8406ZM21.6499 13.9107C21.6166 13.9407 21.5866 13.9807 21.5766 14.024H21.9033V14.0007C21.9033 13.9573 21.8933 13.9273 21.87 13.9007C21.8466 13.8773 21.8166 13.8673 21.7733 13.8673C21.7266 13.864 21.6899 13.8806 21.6499 13.9107ZM16.5024 13.1639H16.079C16.049 13.1639 16.0257 13.1872 16.0223 13.2139L15.849 14.3107C15.8456 14.3341 15.859 14.3541 15.8823 14.3541H16.1023C16.1224 14.3541 16.1424 14.3374 16.1457 14.3207L16.1957 14.0107C16.199 13.984 16.2257 13.9607 16.2524 13.9607H16.3857C16.6658 13.9607 16.8291 13.8273 16.8725 13.5573C16.8925 13.4372 16.8725 13.3439 16.8191 13.2839C16.7525 13.2005 16.6458 13.1639 16.5024 13.1639ZM16.5524 13.5639C16.5291 13.7173 16.4124 13.7173 16.299 13.7173H16.2324L16.279 13.4306C16.2824 13.4139 16.299 13.4006 16.3124 13.4006H16.3424C16.4191 13.4006 16.4924 13.4006 16.5324 13.4439C16.5524 13.4706 16.5591 13.5106 16.5524 13.5639ZM13.4586 13.1639H13.0318C13.0018 13.1639 12.9785 13.1872 12.9752 13.2139L12.8018 14.3107C12.7985 14.3341 12.8118 14.3541 12.8351 14.3541H13.0385C13.0685 14.3541 13.0918 14.3341 13.0952 14.3041L13.1419 14.0107C13.1452 13.984 13.1719 13.9607 13.1985 13.9607H13.3319C13.6119 13.9607 13.7753 13.8273 13.8186 13.5573C13.8386 13.4372 13.8186 13.3439 13.7653 13.2839C13.712 13.2005 13.6019 13.1639 13.4586 13.1639ZM13.5086 13.5639C13.4852 13.7173 13.3686 13.7173 13.2552 13.7173H13.1885L13.2352 13.4306C13.2385 13.4139 13.2552 13.4006 13.2685 13.4006H13.2985C13.3752 13.4006 13.4486 13.4006 13.4886 13.4439C13.5153 13.4706 13.5186 13.5106 13.5086 13.5639ZM14.7355 13.5573H14.5321C14.5121 13.5573 14.5021 13.5673 14.4987 13.5873L14.4921 13.6439L14.4754 13.6239C14.4321 13.5573 14.3321 13.5406 14.232 13.5406C14.0087 13.5406 13.8153 13.7106 13.7786 13.9507C13.7586 14.0707 13.7853 14.1874 13.8553 14.264C13.9187 14.3374 14.0053 14.3674 14.1154 14.3674C14.2954 14.3674 14.3954 14.2507 14.3954 14.2507L14.3887 14.3074C14.3854 14.3307 14.3987 14.3507 14.4221 14.3507H14.6088C14.6388 14.3507 14.6621 14.3307 14.6654 14.3007L14.7788 13.6039C14.7755 13.5739 14.7588 13.5573 14.7355 13.5573ZM14.4521 13.954C14.4321 14.0707 14.3387 14.1507 14.222 14.1507C14.1654 14.1507 14.1154 14.1307 14.082 14.0973C14.052 14.064 14.0387 14.014 14.052 13.954C14.072 13.8373 14.1654 13.7573 14.2787 13.7573C14.3354 13.7573 14.3821 13.7773 14.4121 13.8106C14.4454 13.844 14.4587 13.8973 14.4521 13.954ZM17.7793 13.5573H17.5759C17.5559 13.5573 17.5459 13.5673 17.5426 13.5873L17.5359 13.6439L17.5193 13.6239C17.4759 13.5573 17.3759 13.5406 17.2759 13.5406C17.0525 13.5406 16.8591 13.7106 16.8225 13.9507C16.8025 14.0707 16.8291 14.1874 16.8991 14.264C16.9625 14.3374 17.0492 14.3674 17.1592 14.3674C17.3392 14.3674 17.4392 14.2507 17.4392 14.2507L17.4326 14.3074C17.4292 14.3307 17.4426 14.3507 17.4659 14.3507H17.6526C17.6826 14.3507 17.7059 14.3307 17.7093 14.3007L17.8226 13.6039C17.816 13.5739 17.7993 13.5573 17.7793 13.5573ZM17.4926 13.954C17.4726 14.0707 17.3792 14.1507 17.2625 14.1507C17.2059 14.1507 17.1559 14.1307 17.1225 14.0973C17.0925 14.064 17.0792 14.014 17.0925 13.954C17.1125 13.8373 17.2059 13.7573 17.3192 13.7573C17.3759 13.7573 17.4226 13.7773 17.4526 13.8106C17.4892 13.844 17.5026 13.8973 17.4926 13.954ZM15.8223 13.5573H15.6189C15.5989 13.5573 15.5789 13.5673 15.5689 13.5839L15.2889 14.0007L15.1689 13.6006C15.1622 13.5739 15.1389 13.5573 15.1122 13.5573H14.9122C14.8888 13.5573 14.8688 13.5806 14.8788 13.6039L15.1055 14.2674L14.8921 14.5674C14.8755 14.5908 14.8921 14.6241 14.9222 14.6241H15.1255C15.1455 14.6241 15.1655 14.6174 15.1755 14.5974L15.859 13.6139C15.869 13.5906 15.8523 13.5573 15.8223 13.5573ZM18.0193 13.1939L17.846 14.3074C17.8426 14.3307 17.856 14.3507 17.8793 14.3507H18.056C18.086 14.3507 18.1094 14.3307 18.1127 14.3007L18.286 13.2039C18.2894 13.1805 18.276 13.1605 18.2527 13.1605H18.056C18.036 13.1639 18.0227 13.1739 18.0193 13.1939Z" fill="black"/>
</svg>

<svg fill="none" xmlns="http://www.w3.org/2000/svg" viewBox="0 0 24 24">
  <path d="M2.65 12.27h.47c.364 0 .544-.12.544-.346 0-.224-.194-.347-.57-.347h-.44v.693H2.65Zm0-1.677v.644h.414c.31 0 .466-.117.466-.323 0-.214-.166-.324-.473-.324l-.407.003ZM2 12.62v-.346h.273V10.6H2v-.347h1.104c.506 0 .813.23.813.637 0 .267-.153.427-.353.507.28.077.486.277.486.55 0 .433-.336.673-.886.673H2Zm4.04-1.236c-.043-.14-.143-.22-.276-.22-.317 0-.617.23-.617.66v.45h.61v.346H4.4v-.346h.387V11.23h-.303v-.347h.663v.294c.114-.204.337-.35.637-.35.337 0 .547.193.61.466l-.353.09Zm1.851.53a1.39 1.39 0 0 0-.447-.074c-.23 0-.45.074-.45.28 0 .154.14.227.33.227.267 0 .567-.143.567-.39v-.043Zm0-.31v-.097c0-.247-.197-.347-.413-.347-.2 0-.374.08-.514.207l-.24-.26c.167-.15.397-.29.754-.29.44 0 .78.23.78.673v.777h.253v.347h-.623v-.18c-.094.15-.35.243-.6.243-.364 0-.674-.187-.674-.547-.003-.43.42-.596.807-.596.197 0 .35.036.47.07ZM9.631 10h.404v.533H9.63V10Zm1.08 2.27v.347H8.944v-.347h.734v-1.043h-.56v-.347h.92v1.394h.673v-.004Zm.434 0h.267v-1.043h-.25v-.347h.61v.223c.106-.17.326-.28.6-.28.39 0 .67.247.67.64v.81h.267v.347h-.907v-.346h.276v-.71c0-.3-.186-.39-.353-.39-.273 0-.55.203-.55.52v.58h.277v.346h-.907v-.35Zm2.657-1.046h-.453v-.347h.453v-.63h.363v.63h.854v.346h-.854v.734c0 .27.19.383.404.383.203 0 .376-.116.506-.243l.244.25a.998.998 0 0 1-.747.33c-.44 0-.767-.243-.767-.707v-.747m3.488.16c-.044-.14-.144-.22-.277-.22-.317 0-.617.23-.617.66v.45h.607v.347h-1.357v-.346h.387V11.23h-.3v-.347h.663v.294c.113-.204.337-.35.637-.35.337 0 .547.193.61.466l-.354.09Zm.973.184h1.077a.528.528 0 0 0-.52-.417.552.552 0 0 0-.557.417Zm1.457.787c-.18.19-.5.323-.86.323-.587 0-1-.393-1-.927 0-.537.396-.927.953-.927.55 0 .937.42.937.99v.064h-1.507c.063.29.303.467.62.467.264 0 .49-.107.614-.24 0 .003.243.25.243.25Zm.79-.787h1.077a.528.528 0 0 0-.52-.417.554.554 0 0 0-.557.417Zm1.457.787c-.18.19-.5.323-.86.323-.587 0-1-.393-1-.927 0-.537.396-.927.953-.927.55 0 .937.42.937.99v.064h-1.507c.063.29.304.467.62.467.264 0 .49-.107.614-.24l.243.25ZM11.812 14.164l-.094.177h-.116l.416-.78h.104l.17.78h-.114l-.04-.177h-.326Zm.24-.457-.194.367h.267l-.073-.367Zm6.878.57a.178.178 0 0 0 .1-.023c.026-.017.046-.033.056-.057.01-.023.02-.05.02-.073a.079.079 0 0 0-.02-.057c-.01-.016-.033-.03-.066-.046l-.097-.044a.313.313 0 0 1-.12-.08.17.17 0 0 1-.034-.106.21.21 0 0 1 .13-.2.333.333 0 0 1 .144-.027c.047 0 .083.007.12.02.033.01.063.03.09.053l-.017.104a.282.282 0 0 0-.2-.08.193.193 0 0 0-.117.033.103.103 0 0 0-.046.09c0 .02.006.04.023.05.017.017.043.03.08.05l.097.043c.05.027.09.054.107.08.023.03.03.067.03.107a.244.244 0 0 1-.127.227.341.341 0 0 1-.173.04c-.097 0-.174-.024-.227-.074l.02-.113c.07.053.143.083.227.083Zm.84-.436c.04.043.053.093.053.156 0 .024 0 .04-.003.054l-.01.05h-.424c-.003.056.01.1.044.13.03.03.073.046.126.046a.25.25 0 0 0 .104-.016.295.295 0 0 0 .093-.044l-.017.084a.346.346 0 0 1-.203.056.248.248 0 0 1-.133-.033.19.19 0 0 1-.084-.093.339.339 0 0 1-.03-.13.37.37 0 0 1 .034-.15.368.368 0 0 1 .106-.13.311.311 0 0 1 .18-.054c.07.014.124.03.164.074Zm-.297.07a.232.232 0 0 0-.073.113h.326v-.023a.14.14 0 0 0-.033-.1c-.023-.024-.053-.034-.097-.034a.166.166 0 0 0-.123.044Zm.697-.027a.165.165 0 0 0-.114.047.274.274 0 0 0-.063.14l-.043.276h-.1l.083-.55h.097l-.017.094c.047-.067.1-.097.163-.097.017 0 .03 0 .044.003l-.017.09h-.033m.303.46h-.097l-.13-.546h.1l.097.426.227-.426h.103l-.3.546Zm.364 0h-.1l.083-.55h.1l-.084.55Zm.013-.656a.055.055 0 0 1-.017-.04c0-.02.007-.034.024-.05.016-.017.03-.024.05-.024.016 0 .026.004.04.017.01.01.016.023.016.04 0 .02-.007.033-.023.05-.017.017-.03.023-.05.023a.055.055 0 0 1-.04-.016Zm.223.643a.19.19 0 0 1-.083-.093.323.323 0 0 1 .01-.294.319.319 0 0 1 .293-.17c.067 0 .12.017.164.05l-.017.104a.194.194 0 0 0-.15-.064c-.043 0-.08.01-.117.034a.21.21 0 0 0-.08.09.223.223 0 0 0-.026.116c0 .05.016.094.043.124.027.03.07.046.117.046.03 0 .063-.003.093-.016a.203.203 0 0 0 .08-.05l-.017.103a.319.319 0 0 1-.09.043.442.442 0 0 1-.093.01.196.196 0 0 1-.127-.033Zm.874-.493c.04.043.053.093.053.156 0 .024 0 .04-.003.054l-.01.05h-.424c-.003.056.01.1.044.13.03.03.073.046.126.046a.25.25 0 0 0 .104-.016.295.295 0 0 0 .093-.044l-.017.084a.346.346 0 0 1-.203.056.248.248 0 0 1-.133-.033.19.19 0 0 1-.084-.093.339.339 0 0 1-.03-.13.37.37 0 0 1 .034-.15.367.367 0 0 1 .106-.13.311.311 0 0 1 .18-.054c.077.014.13.03.164.074Zm-.297.07a.232.232 0 0 0-.073.113h.326v-.023a.14.14 0 0 0-.033-.1c-.023-.024-.053-.034-.097-.034-.046-.003-.083.014-.123.044Zm-5.148-.747h-.423a.058.058 0 0 0-.057.05l-.173 1.097c-.003.023.01.043.033.043h.22c.02 0 .04-.017.044-.033l.05-.31a.06.06 0 0 1 .056-.05h.134c.28 0 .443-.134.486-.404.02-.12 0-.213-.053-.273-.066-.084-.173-.12-.317-.12Zm.05.4c-.023.153-.14.153-.253.153h-.067l.047-.286c.003-.017.02-.03.033-.03h.03c.077 0 .15 0 .19.043.02.027.027.067.02.12Zm-3.093-.4h-.427a.057.057 0 0 0-.057.05l-.173 1.097c-.003.023.01.043.033.043h.204c.03 0 .053-.02.056-.05l.047-.293a.06.06 0 0 1 .056-.05h.134c.28 0 .443-.134.487-.404.02-.12 0-.213-.054-.273-.053-.084-.163-.12-.306-.12Zm.05.4c-.024.153-.14.153-.254.153h-.067l.047-.286c.004-.017.02-.03.034-.03h.03c.076 0 .15 0 .19.043.026.027.03.067.02.12Zm1.226-.007h-.203c-.02 0-.03.01-.033.03l-.007.057-.017-.02c-.043-.067-.143-.083-.243-.083a.467.467 0 0 0-.453.41c-.02.12.006.236.076.313.064.073.15.103.26.103.18 0 .28-.116.28-.116l-.006.056c-.004.024.01.044.033.044h.187c.03 0 .053-.02.056-.05l.114-.697c-.004-.03-.02-.047-.043-.047Zm-.283.397a.23.23 0 0 1-.23.197.197.197 0 0 1-.14-.054c-.03-.033-.043-.083-.03-.143a.23.23 0 0 1 .227-.197c.056 0 .103.02.133.054.033.033.047.086.04.143Zm3.327-.397h-.203c-.02 0-.03.01-.033.03l-.007.057-.017-.02c-.043-.067-.143-.083-.243-.083a.467.467 0 0 0-.453.41c-.02.12.006.236.076.313.063.073.15.103.26.103.18 0 .28-.116.28-.116l-.006.056c-.004.024.01.044.033.044h.187c.03 0 .053-.02.056-.05l.114-.697c-.007-.03-.024-.047-.044-.047Zm-.286.397a.23.23 0 0 1-.23.197.197.197 0 0 1-.14-.054c-.03-.033-.044-.083-.03-.143a.23.23 0 0 1 .226-.197c.057 0 .104.02.134.054.036.033.05.086.04.143Zm-1.67-.397h-.204c-.02 0-.04.01-.05.027l-.28.417-.12-.4a.057.057 0 0 0-.057-.044h-.2c-.023 0-.043.024-.033.047l.226.663-.213.3a.036.036 0 0 0 .03.057h.204c.02 0 .04-.007.05-.027l.683-.983c.01-.023-.007-.057-.037-.057Zm2.196-.363-.173 1.113c-.003.024.01.044.033.044h.177c.03 0 .053-.02.057-.05l.173-1.097c.003-.024-.01-.043-.033-.043h-.197c-.02.003-.033.013-.037.033Z" fill="#000"/>
</svg>
